assets/svg/1F556.svg

<svg xmlns="http://www.w3.org/2000/svg" viewBox="0 0 64 64" enable-background="new 0 0 64 64"><circle fill="#e0e7ec" cx="32.04" cy="32.04" r="29.681"/><path fill="#d1d7da" d="m52.36 47.23c-16.392 0-29.68-13.288-29.68-29.68 0-5.449 1.493-10.542 4.058-14.932-13.798 2.551-24.26 14.626-24.26 29.16 0 16.392 13.288 29.68 29.68 29.68 10.943 0 20.474-5.938 25.622-14.75-1.76.326-3.567.519-5.423.519"/><path fill="#98a9b4" d="m32.04 0c-17.666 0-32.04 14.372-32.04 32.04 0 17.666 14.374 32.04 32.04 32.04 17.666 0 32.04-14.372 32.04-32.04 0-17.668-14.37-32.04-32.04-32.04m0 57.841c-14.228 0-25.805-11.575-25.805-25.801 0-14.229 11.577-25.805 25.805-25.805 14.226 0 25.797 11.575 25.797 25.805 0 14.226-11.571 25.801-25.797 25.801"/><path fill="#85939c" d="m30.16 11.05c0-1.438.849-2.605 1.895-2.605l0 0c1.042 0 1.891 1.167 1.891 2.605v21.11c0 1.441-.849 2.609-1.891 2.609l0 0c-1.046 0-1.895-1.168-1.895-2.609v-21.11"/><path fill="#788288" d="m26.805 47.923c-.64 1.29-1.92 1.96-2.854 1.497l0 0c-.936-.464-1.177-1.888-.539-3.179l6.78-13.69c.638-1.289 1.918-1.959 2.854-1.496l0 0c.935.463 1.178 1.887.544 3.177l-6.785 13.691"/></svg>

<?xml version="1.0" encoding="UTF-8" standalone="no"?>
<!-- Generator: Adobe Illustrator 16.0.0, SVG Export Plug-In . SVG Version: 6.00 Build 0)  -->

<svg
   xmlns:dc="http://purl.org/dc/elements/1.1/"
   xmlns:cc="http://creativecommons.org/ns#"
   xmlns:rdf="http://www.w3.org/1999/02/22-rdf-syntax-ns#"
   xmlns:svg="http://www.w3.org/2000/svg"
   xmlns="http://www.w3.org/2000/svg"
   xmlns:sodipodi="http://sodipodi.sourceforge.net/DTD/sodipodi-0.dtd"
   xmlns:inkscape="http://www.inkscape.org/namespaces/inkscape"
   version="1.1"
   id="Layer_1"
   x="0px"
   y="0px"
   width="64px"
   height="64px"
   viewBox="0 0 64 64"
   enable-background="new 0 0 64 64"
   xml:space="preserve"
   inkscape:version="0.48.5 r10040"
   sodipodi:docname="1F556.svg"
   inkscape:export-filename="D:\TESTINGEMOJI\SVGTEST\1F556.png"
   inkscape:export-xdpi="90"
   inkscape:export-ydpi="90"><metadata
   id="metadata4084"><rdf:RDF><cc:Work
       rdf:about=""><dc:format>image/svg+xml</dc:format><dc:type
         rdf:resource="http://purl.org/dc/dcmitype/StillImage" /><dc:title></dc:title></cc:Work></rdf:RDF></metadata><defs
   id="defs4082" /><sodipodi:namedview
   pagecolor="#ffffff"
   bordercolor="#666666"
   borderopacity="1"
   objecttolerance="10"
   gridtolerance="10"
   guidetolerance="10"
   inkscape:pageopacity="0"
   inkscape:pageshadow="2"
   inkscape:window-width="640"
   inkscape:window-height="480"
   id="namedview4080"
   showgrid="false"
   inkscape:zoom="3.6875"
   inkscape:cx="32"
   inkscape:cy="32"
   inkscape:window-x="497"
   inkscape:window-y="242"
   inkscape:window-maximized="0"
   inkscape:current-layer="Layer_1" />
<g
   id="g4068">
	<circle
   fill="#E0E7EC"
   cx="32.037"
   cy="32.038"
   r="29.681"
   id="circle4070" />
	<path
   fill="#D1D7DA"
   d="M52.362,47.229c-16.392,0-29.68-13.288-29.68-29.68c0-5.449,1.493-10.542,4.058-14.932   C12.942,5.168,2.483,17.243,2.483,31.78c0,16.392,13.288,29.68,29.68,29.68c10.943,0,20.474-5.938,25.622-14.75   C56.025,47.036,54.218,47.229,52.362,47.229z"
   id="path4072" />
	<path
   fill="#98A9B4"
   d="M32.04,0C14.374,0,0,14.372,0,32.04c0,17.666,14.374,32.038,32.04,32.038   c17.666,0,32.036-14.372,32.036-32.038C64.076,14.372,49.706,0,32.04,0z M32.04,57.841c-14.228,0-25.805-11.575-25.805-25.801   c0-14.229,11.577-25.805,25.805-25.805c14.226,0,25.797,11.575,25.797,25.805C57.837,46.266,46.266,57.841,32.04,57.841z"
   id="path4074" />
	<path
   fill="#85939C"
   d="M30.156,11.053c0-1.438,0.849-2.605,1.895-2.605l0,0c1.042,0,1.891,1.167,1.891,2.605v21.111   c0,1.441-0.849,2.609-1.891,2.609l0,0c-1.046,0-1.895-1.168-1.895-2.609V11.053z"
   id="path4076" />
	<path
   fill="#788288"
   d="M26.805,47.923c-0.64,1.29-1.92,1.96-2.854,1.497l0,0c-0.936-0.464-1.177-1.888-0.539-3.179l6.78-13.69   c0.638-1.289,1.918-1.959,2.854-1.496l0,0c0.935,0.463,1.178,1.887,0.544,3.177L26.805,47.923z"
   id="path4078" />
</g>
</svg>
